X:124 
T:Matt Hayes' Jig
F:file ID: cre.5/124matt_h
B:CRE5.028 (Port Mhait Hayes)
M:6/8
Q:160
R:jig
K:D
A/G/|F2D F2A|dfd ecA|FAD FAF|GEF GFE|
F2D FGA|dfd ecA|fef gec|Adc d2:|
A|def fef|dfa afe|def def|ece gfe|
dad ~f3|d2a afd|cef gfe|fdc d2:|

%%%

